public/library/apescan-icon-dark.svg

<svg xmlns="http://www.w3.org/2000/svg" width="422" height="422" fill="none" viewBox="0 0 422 422"><path fill="#fff" d="M.873.557h421.06v421.06H.873z"/><path fill="#fff" d="M.873.557h421.06v421.06H.873z"/><path fill="#0054fa" d="M113.296 135.815h29.114l18.776 156.118h-24.683l-2.743-33.967h-13.08l-2.743 33.967H94.52zm11.603 69.409-2.531 32.067h9.704l-2.742-32.067-1.899-27.004h-.633zm88.021 86.709h-25.106V135.815h32.912c17.932 0 28.903 10.548 28.903 29.536v38.396c0 18.776-10.971 29.325-28.903 29.325h-7.806zm.211-77.637h5.485c4.219 0 5.907-3.798 5.907-10.549v-38.396c0-6.962-1.688-10.76-5.907-10.76h-5.485zm65.417 77.637V135.815h48.945v20.675h-23.84v46.202h21.308v20.675h-21.308v47.891h23.84v20.675z"/></svg>

<svg width="422" height="422" viewBox="0 0 422 422" fill="none" xmlns="http://www.w3.org/2000/svg">
<rect width="421.06" height="421.06" transform="translate(0.873108 0.557129)" fill="white"/>
<rect x="0.873108" y="0.557129" width="421.06" height="421.06" fill="white"/>
<path d="M113.296 135.815H142.41L161.186 291.933H136.503L133.76 257.966H120.68L117.937 291.933H94.5196L113.296 135.815ZM124.899 205.224L122.368 237.291H132.072L129.33 205.224L127.431 178.22H126.798L124.899 205.224ZM212.92 291.933H187.814V135.815H220.726C238.658 135.815 249.629 146.363 249.629 165.351V203.747C249.629 222.523 238.658 233.072 220.726 233.072H212.92V291.933ZM213.131 214.296H218.616C222.835 214.296 224.523 210.498 224.523 203.747V165.351C224.523 158.389 222.835 154.591 218.616 154.591H213.131V214.296ZM278.548 291.933V135.815H327.493V156.49H303.653V202.692H324.961V223.367H303.653V271.258H327.493V291.933H278.548Z" fill="#0054FA"/>
</svg>
